public/static/img/flag/de.svg

<svg width="30" height="30" viewBox="0 0 30 30" fill="none" xmlns="http://www.w3.org/2000/svg">
<circle cx="15" cy="15" r="13" fill="#E22D2D"/>
<mask id="mask0_136_1856" style="mask-type:alpha" maskUnits="userSpaceOnUse" x="2" y="2" width="26" height="26">
<circle cx="15" cy="15" r="13" fill="#CE1126"/>
</mask>
<g mask="url(#mask0_136_1856)">
<path fill-rule="evenodd" clip-rule="evenodd" d="M19.7088 6.02505L19.3502 5L18.9903 6.02531L17.8549 6.03332L18.7111 6.70997L18.3883 7.82851L19.3502 7.17071L20.3121 7.82851L19.967 6.72469L20.8442 6.03306L19.7088 6.02505ZM24.0116 10.2208L23.653 9.19576L23.2931 10.2211L22.1577 10.2291L23.0139 10.9057L22.6912 12.0243L23.653 11.3665L24.6149 12.0243L24.2698 10.9205L25.147 10.2288L24.0116 10.2208ZM23.8632 16.3104L23.5046 15.2854L23.1447 16.3107L22.0093 16.3187L22.8655 16.9954L22.5427 18.1139L23.5046 17.4561L24.4665 18.1139L24.1214 17.0101L24.9986 16.3184L23.8632 16.3104ZM19.7088 20.4693L19.3502 19.4442L18.9903 20.4695L17.8549 20.4775L18.7111 21.1542L18.3883 22.2727L19.3502 21.6149L20.3121 22.2727L19.967 21.1689L20.8442 20.4773L19.7088 20.4693ZM10.745 10.1131L9.65105 6.81818L8.55732 10.1125L5.09357 10.1389L7.70118 12.314L6.71695 15.9091L9.65105 13.7951L12.5851 15.9091L11.5324 12.3614L14.2088 10.1394L10.745 10.1131Z" fill="#FCD116"/>
</g>
<g clip-path="url(#clip0_136_1856)">
<path d="M0.986694 9.64315C2.07141 6.80625 3.99181 4.3655 6.49386 2.64377C8.99591 0.922046 11.9617 0.000477629 14.9989 0.000977271C18.0365 4.36681e-05 21.0027 0.92141 23.5052 2.64316C26.0077 4.36492 27.9284 6.80591 29.0133 9.64315H0.986694Z" fill="#040000"/>
<path d="M0.98562 20.3566C0.332659 18.6462 -0.00105308 16.8306 0.00104792 14.9998C-0.00110157 13.1691 0.332612 11.3534 0.98562 9.64307H29.0133C29.6663 11.3534 30 13.1691 29.9978 14.9998C29.9999 16.8306 29.6662 18.6462 29.0133 20.3566H0.98562Z" fill="#CB1428"/>
<path d="M0.985657 20.3569H29.0133C27.9286 23.1938 26.0082 25.6346 23.5061 27.3563C21.0041 29.078 18.0383 29.9996 15.0011 29.9991C11.9635 29.9995 8.99734 29.0779 6.4948 27.3563C3.99226 25.6346 2.0712 23.1939 0.985657 20.3569Z" fill="#F5D34B"/>
</g>
<defs>
<clipPath id="clip0_136_1856">
<rect width="30" height="30" fill="white"/>
</clipPath>
</defs>
</svg>

<svg width="30" height="30" fill="none" xmlns="http://www.w3.org/2000/svg"><circle cx="15" cy="15" r="13" fill="#E22D2D"/><mask id="a" style="mask-type:alpha" maskUnits="userSpaceOnUse" x="2" y="2" width="26" height="26"><circle cx="15" cy="15" r="13" fill="#CE1126"/></mask><g mask="url(#a)"><path fill-rule="evenodd" clip-rule="evenodd" d="M19.709 6.025 19.35 5l-.36 1.025-1.135.008.856.677-.323 1.119.962-.658.962.658-.345-1.104.877-.692-1.135-.008Zm4.303 4.196-.359-1.025-.36 1.025-1.135.008.856.677-.323 1.118.962-.657.962.657-.345-1.103.877-.692-1.135-.008Zm-.149 6.09-.358-1.026-.36 1.026-1.136.008.857.676-.323 1.119.962-.658.962.658-.346-1.104.878-.692-1.136-.008Zm-4.154 4.158-.359-1.025-.36 1.026-1.135.008.856.676-.323 1.119.962-.658.962.658-.345-1.104.877-.692-1.135-.008Zm-8.964-10.356L9.651 6.818l-1.094 3.295-3.463.026L7.7 12.314l-.984 3.595 2.934-2.114 2.934 2.114-1.053-3.548 2.677-2.222-3.464-.026Z" fill="#FCD116"/></g><g clip-path="url(#b)"><path d="M.987 9.643A14.999 14.999 0 0 1 14.999.001a14.999 14.999 0 0 1 14.014 9.642H.987Z" fill="#040000"/><path d="M.986 20.357A14.971 14.971 0 0 1 0 15c-.002-1.83.332-3.647.985-5.357h28.027c.653 1.71.987 3.526.985 5.357a14.973 14.973 0 0 1-.985 5.357H.986Z" fill="#CB1428"/><path d="M.986 20.357h28.027a14.999 14.999 0 0 1-14.012 9.642A15.005 15.005 0 0 1 .986 20.357Z" fill="#F5D34B"/></g><defs><clipPath id="b"><path fill="#fff" d="M0 0h30v30H0z"/></clipPath></defs></svg>
